!!!!SEGMENT: pl-gd--ee-1638--008-006_marenzio-luca--il-quarto-libro-de-madrigalia-a-sei-voci-tra-l-herbe-a-pie-d-un-mirto.krn
!!!cenid: 15xx:868
!!!COM: Marenzio, Luca
!!!COM-rismID: pe30003955
!!!CDT: ~1553-1599/08/22
!!!CNT: Italian
!!!GTL: Il Quarto Libro de madrigalia a sei voci
!!!OTL: Tra l'herbe à pie d'un mirto
!!!OMV: 006
!!!PDT: 1587
!!!AGN:
!!!SMS-siglum: PL-GD
!!!SMS-shelfmark: Ee 1638
!!!SMS-variant:
!!!SMS-altvar:
!!!SMS-shelfwork: 008-006 G
!!!NIFC-rismSourceID: 1001202747
!!!NIFC-rismChildID: 990039254
!!!NIFC-islandoraID: pl-gd:57883
!!!URL-pdf-islandora: https://repozytorium.nifc.pl/islandora/object/pl-gd%3A57883/datastream/PDF/view
!!!URL-scan: https://polish.musicsources.pl/pl/lokalizacje/galeria/klocki-introligatorskie/655 @EN{Scan on Polish Music Sources Website} @PL{Skany w portalu Dziedzictwo Muzyki Polskiej w otwartym dostępie}
!!!IIIF: https://repozytorium.nifc.pl/islandora/object/pl-gd%3A57883/datastream/IIIF/view
!!!ONB-nifc: UWAGA: zbiór na stronach: Canto: s. 706-716, Alto: s. 554-564, Tenore: s. 402-412, Basso: s.250-260, Quinto: s. 98-108, Sesto: s. 16-26. Uwaga: utwory podzielone wg tytułów w spisach treści dostępnych na końcu każdej księgi głosowej.
!!!AIN: 1 alto 1 bass 2 soprn 2 tenor
!!!key: C:ion
**kern	**text	**kern	**text	**kern	**text	**kern	**text	**kern	**text	**kern	**text
*part6	*part6	*part5	*part5	*part4	*part4	*part3	*part3	*part2	*part2	*part1	*part1
*staff6	*staff6	*staff5	*staff5	*staff4	*staff4	*staff3	*staff3	*staff2	*staff2	*staff1	*staff1
*I"Sesto	*	*I"Quinto	*	*I"Basso	*	*I"Tenore	*	*I"Alto	*	*I"Canto	*
*I'S	*	*I'Q	*	*I'B	*	*I'T	*	*I'A	*	*I'C	*
*Itenor	*	*Isoprn	*	*Ibass	*	*Itenor	*	*Ialto	*	*Isoprn	*
*ICvox	*	*ICvox	*	*ICvox	*	*ICvox	*	*Cvox	*	*ICvox	*
*clefC3	*	*clefG2	*	*clefF3	*	*clefC3	*	*clefC2	*	*clefG2	*
*k[]	*	*k[]	*	*k[]	*	*k[]	*	*k[]	*	*k[]	*
*C:ion	*	*C:ion	*	*C:ion	*	*C:ion	*	*C:ion	*	*C:ion	*
*M2/1	*	*M2/1	*	*M2/1	*	*M2/1	*	*M2/1	*	*M2/1	*
=1-	=1-	=1-	=1-	=1-	=1-	=1-	=1-	=1-	=1-	=1-	=1-
*xywh-#19:1025,589,3338,812	*	*xywh-#101:1170,594,3345,781	*	*xywh-#253:1340,634,3358,798	*	*xywh-#405:1370,508,3379,821	*	*xywh-#557:1284,568,3340,898	*	*xywh-#709:1306,529,3354,836	*
!	!	!	!	!	!	!	!	!	!	!LO:TX:a:B:t=Prestissimo	!
4r	.	0r	.	2C/	Tra	4r	.	0r	.	0r	.
4c/	Tra	.	.	.	.	4e\	Tra	.	.	.	.
2.e\	l'her-	.	.	2.C/	l'her-	2.g\	l'her-	.	.	.	.
4d\	-be a	.	.	4D/	-be a	4f\	-be a	.	.	.	.
4c/	pie	.	.	4.E/	pie	4e\	pie	.	.	.	.
4c/	d'un	.	.	.	.	4e\	d'un	.	.	.	.
.	.	.	.	8F/	d'un	.	.	.	.	.	.
=2-	=2-	=2-	=2-	=2-	=2-	=2-	=2-	=2-	=2-	=2-	=2-
2B/	mir-	1r	.	2G\	mir-	2d\	mir-	1r	.	1r	.
2B/	-to	.	.	2G\	-to	2d\	-to	.	.	.	.
1r	.	4r	.	1r	.	1r	.	2c/	Tra	4r	.
.	.	4cc\	TRa	.	.	.	.	.	.	4ee\	Tra
.	.	2.ee\	l'her-	.	.	.	.	2.c/	l'her-	2.gg\	l'her-
=3-	=3-	=3-	=3-	=3-	=3-	=3-	=3-	=3-	=3-	=3-	=3-
00r	.	.	.	00r	.	0r	.	.	.	.	.
.	.	4dd\	-be a	.	.	.	.	4d/	-be a	4ff\	-be a
.	.	4cc\	pie	.	.	.	.	4.e/	pie	4ee\	pie
.	.	4cc\	d'un	.	.	.	.	.	.	4ee\	d'un
.	.	.	.	.	.	.	.	8f\	d'un	.	.
.	.	2b/	mir-	.	.	.	.	2g\	mir-	2dd\	mir-
.	.	2b/	-to	.	.	.	.	2g\	-to	2dd\	-to
=4-	=4-	=4-	=4-	=4-	=4-	=4-	=4-	=4-	=4-	=4-	=4-
.	.	4r	.	.	.	4r	.	4r	.	4r	.
.	.	2ee\	che'l	.	.	2c/	che'l	2g\	che'l	2cc\	che'l
.	.	4ff#X\	co-	.	.	4A/	co-	4c/	co-	4cc\	co-
.	.	1gg	-pri-	.	.	1G	-pri-	2d/	-pri-	1b-X	-pri-
.	.	.	.	.	.	.	.	2e/	.	.	.
=5-	=5-	=5-	=5-	=5-	=5-	=5-	=5-	=5-	=5-	=5-	=5-
00r	.	4cc\	-ua	00r	.	4F/	-ua	4f\	-ua	4a/	-ua
.	.	4ffny\	Col	.	.	4F/	Col	4a\	Col	4cc\	Col
.	.	4.ff\	ver-	.	.	4.f\	ver-	4.a\	ver-	4.cc\	ver-
!	!	!LO:SIC:v:t=custos ee	!	!	!	!LO:SIC:v:t=custos e	!	!LO:SIC:v:t=custos g	!	!LO:SIC:v:t=custos b	!
.	.	8ff\	-de	.	.	8d\	-de	8a\	-de	8dd\	-de
!	!	!LO:LB:g=original	!	!	!	!	!	!	!	!	!
!	!	!	!	!	!	!	!	!	!	!LO:LB:g=original	!
!	!	!	!	!	!	!	!	!LO:LB:g=original	!	!	!
!	!	!	!	!	!	!LO:LB:g=original	!	!	!	!	!
*	*	*xywh-#101:1149,1258,3359,663	*	*	*	*xywh-#405:1378,1161,3325,714	*	*xywh-#557:1238,1213,3402,752	*	*xywh-#709:1299,1214,3354,707	*
.	.	2ee\	crin	.	.	4e\	crin-	4.g\	crin	4bny/	crin-
.	.	.	.	.	.	4c/	-dal	.	.	4ee\	-dal
.	.	.	.	.	.	.	.	8a\	dal	.	.
.	.	4r	.	.	.	1g\	ſol	1bn\	ſol	2dd\	ſol
.	.	4g/	dal	.	.	.	.	.	.	.	.
=6-	=6-	=6-	=6-	=6-	=6-	=6-	=6-	=6-	=6-	=6-	=6-
.	.	4dd\	Sol	.	.	.	.	.	.	4r	.
.	.	2b/	cal-	.	.	.	.	.	.	4dd\	dal
.	.	.	.	.	.	2e\	cal-	2g\	cal-	2gg\	ſol
.	.	2cc\	-do	.	.	.	.	.	.	.	.
.	.	.	.	.	.	4f\	-do [et]	4a\	-do [et]	4ff\	cal-
.	.	4.b/	[et]	.	.	4g\	i-	4.g\	i-	2dd\	-do [et]
.	.	.	.	.	.	8G/	-ra-	.	.	.	.
.	.	8cc\	i-	.	.	8A/	.	16f\	.	.	.
.	.	.	.	.	.	.	.	16e\	.	.	.
.	.	4dd\	.	.	.	8B/	.	8d/	.	4b/	i-
.	.	.	.	.	.	8c/	.	8e/	.	.	.
=7-	=7-	=7-	=7-	=7-	=7-	=7-	=7-	=7-	=7-	=7-	=7-
1r	.	1dd	-ra-	1r	.	1d	.	4f#X\	.	1a	-ra-
.	.	.	.	.	.	.	.	2g\	-ra-	.	.
.	.	.	.	.	.	.	.	4f#X\	.	.	.
4r	.	1dd	-to	4r	.	2G/	-to	1.g	-to	1b	-to
4d\	COn	.	.	4G\	Con	.	.	.	.	.	.
4.B/	l'ar-	.	.	4.G\	l'ar-	2r	.	.	.	.	.
8c/	-co	.	.	8A\	-co	.	.	.	.	.	.
=8-	=8-	=8-	=8-	=8-	=8-	=8-	=8-	=8-	=8-	=8-	=8-
4d\	ſte-	4r	.	4B\	ſte-	2r	.	.	.	4r	.
4B/	-ſo	4dd\	Con	4G\	-ſo	.	.	.	.	4g/	Con
2r	.	4.b/	l'ar-	4r	.	4r	.	2r	.	4.g/	l'ar-
!	!	!	!	!LO:SIC:v:t=custos G	!	!	!	!	!	!	!
.	.	.	.	4G\	Con	4d\	Con	.	.	.	.
.	.	8cc\	-co	.	.	.	.	.	.	8a/	-co
!	!	!	!	!LO:LB:g=original	!	!	!	!	!	!	!
*	*	*	*	*	*	*	*	*	*	*	*
1r	.	4dd\	ſte-	4.G\	l'ar-	4.B/	l'ar-	1r	.	4b/	ſte-
.	.	4b/	-ſo	.	.	.	.	.	.	4g/	-ſo
.	.	.	.	8A\	-co	8c/	-co	.	.	.	.
.	.	4r	.	4B\	ſte-	4d\	ſte-	.	.	2r	.
.	.	4g/	Con	4G\	-ſo e	4B/	-ſo e	.	.	.	.
=9-	=9-	=9-	=9-	=9-	=9-	=9-	=9-	=9-	=9-	=9-	=9-
00r	.	4.g/	l'ar-	4.c\	la	4.e\	la	1r	.	1r	.
!	!	!LO:SIC:v:t=custos b	!	!	!	!LO:SIC:v:t=custos d	!	!	!	!	!
.	.	8a/	-co	8c\	fa-	8e\	fa-	.	.	.	.
!	!	!	!	!	!	!LO:LB:g=original	!	!	!	!	!
!	!	!LO:LB:g=original	!	!	!	!	!	!	!	!	!
*	*	*xywh-#101:1191,1790,3366,677	*	*	*	*xywh-#405:1385,1714,3310,729	*	*	*	*	*
.	.	4b/	ſte-	4B\	-ret-	4d\	-ret-	.	.	.	.
.	.	4g/	-so e	4B\	-ra a	2g\	-ra a	.	.	.	.
.	.	4.cc\	fa-	2A\	la-	.	.	2r	.	2r	.
.	.	.	.	.	.	4f#X\	la-	.	.	.	.
.	.	8cc\	-ret-	.	.	.	.	.	.	.	.
.	.	4.b/	-ra	2G\	-to	2g\	-to	4r	.	4r	.
.	.	.	.	.	.	.	.	4g\	Con	4dd\	Co(n)
.	.	8cc\	a	.	.	.	.	.	.	.	.
=10-	=10-	=10-	=10-	=10-	=10-	=10-	=10-	=10-	=10-	=10-	=10-
.	.	2dd\	la-	0r	.	0r	.	4.g\	l'ar-	4.b/	l'ar-
.	.	.	.	.	.	.	.	8a\	-co	8cc\	-co
.	.	2g/	-to	.	.	.	.	4b\	ſte-	4dd\	ſte-
!	!	!	!	!	!	!	!	!LO:SIC:v:t=custos cc	!	!LO:SIC:v:t=custos ee	!
.	.	.	.	.	.	.	.	4g\	-ſo e	4b/	-ſo e
!	!	!	!	!	!	!	!	!	!	!LO:LB:g=original	!
!	!	!	!	!	!	!	!	!LO:LB:g=original	!	!	!
*	*	*	*	*	*	*	*	*xywh-#557:1246,1736,3379,714	*	*xywh-#709:1314,1784,3369,661	*
.	.	1r	.	.	.	.	.	4.cc\	la	4.ee\	la
.	.	.	.	.	.	.	.	8cc\	fa-	8ee\	fa-
.	.	.	.	.	.	.	.	4b\	-ret-	4dd\	-ret-
.	.	.	.	.	.	.	.	4b\	-ra a	2gg\	-ra a
=11-	=11-	=11-	=11-	=11-	=11-	=11-	=11-	=11-	=11-	=11-	=11-
!LO:SIC:v:t=custos B	!	!	!	!	!	!	!	!	!	!	!
1r	.	1r	.	1r	.	1r	.	2a\	la-	.	.
.	.	.	.	.	.	.	.	.	.	4ff#X\	la-
.	.	.	.	.	.	.	.	2g\	-to	2gg\	-to
!LO:LB:g=original	!	!	!	!	!	!	!	!	!	!	!
*xywh-#19:1039,1277,3352,624	*	*	*	*	*	*	*	*	*	*	*
2B/	Il	2dd\	Il	2G\	Il	2d\	Il	4r	.	4r	.
.	.	.	.	.	.	.	.	4g\	Il	4dd\	Il
2.B/	for-	2.gg\	for-	2.G\	for-	2.d\	for-	2.b\	for-	2.dd\	for-
=12-	=12-	=12-	=12-	=12-	=12-	=12-	=12-	=12-	=12-	=12-	=12-
.	.	.	.	.	.	.	.	.	.	.	.
4g\	-tu-	4gg\	-tu-	4E/	-tu-	4G/	-tu-	4cc\	-tu-	4ee\	-tu-
4g\	-na-	4gg\	-na-	4G\	-na-	4d\	-na-	4b\	-na-	4dd\	-na-
4c/	-to A-	4ee\	-to A-	4A\	-to A-	4A/	-to A-	4a\	-to A-	4cc\	-to A-
0e	-don	1ee	-don	1E	-don	1B	-don	1g#X	-don	2b/	-don
.	.	.	.	.	.	.	.	.	.	1ee\	ſtan-
=13-	=13-	=13-	=13-	=13-	=13-	=13-	=13-	=13-	=13-	=13-	=13-
.	.	1cc#X	ſtan-	1A	ſtan-	2r	.	1a	ſtan-	.	.
.	.	.	.	.	.	2.A/	ſtan-	.	.	1a	-co
1r	.	2dd\	-co	2D/	-co	.	.	2fny\	-co	.	.
.	.	.	.	.	.	4A/	-co	.	.	.	.
.	.	2d/	dor-	2D/	dor-	2B/	dor-	2F/	dor-	2dd\	dor-
=14-	=14-	=14-	=14-	=14-	=14-	=14-	=14-	=14-	=14-	=14-	=14-
!	!	!LO:SIC:v:t=custos e	!	!	!	!	!	!	!	!	!
0r	.	1e	-mi-	1C	-mi-	1c	-mi-	1G	-mi-	1g	-mi-
!	!	!LO:LB:g=original	!	!	!	!	!	!	!	!	!
*	*	*xywh-#101:1177,2336,3345,649	*	*	*	*	*	*	*	*	*
.	.	0e	-ua	0C	-ua	0c	-ua	0G	-ua	0g	-ua
=15-	=15-	=15-	=15-	=15-	=15-	=15-	=15-	=15-	=15-	=15-	=15-
!	!	!	!	!LO:SIC:v:t=custos c	!	!	!	!	!	!	!
1r	.	.	.	.	.	.	.	.	.	.	.
4r	.	4r	.	1r	.	4r	.	1r	.	4r	.
4c/	La	4ee\	La	.	.	4g\	La	.	.	4cc\	La
4.c/	bel-	4.ee\	bel-	.	.	4.g\	bel-	.	.	4.cc\	bel-
!	!	!	!	!	!	!LO:SIC:v:t=custos a	!	!	!	!LO:SIC:v:t=custos cc	!
8c/	-la	8ee\	-la	.	.	8g\	-la	.	.	8cc\	-la
=16-	=16-	=16-	=16-	=16-	=16-	=16-	=16-	=16-	=16-	=16-	=16-
!	!	!	!	!	!	!	!	!	!	!LO:LB:g=original	!
!	!	!	!	!	!	!LO:LB:g=original	!	!	!	!	!
!	!	!	!	!LO:LB:g=original	!	!	!	!	!	!	!
*	*	*	*	*xywh-#253:1417,1813,3312,705	*	*xywh-#405:1393,2236,3348,721	*	*	*	*xywh-#709:1306,2347,3361,631	*
4f\	Ci-	4ff\	Ci-	0r	.	4a\	Ci-	0r	.	4cc\	Ci-
4c/	-the-	4ee\	-the-	.	.	4g\	-the-	.	.	4cc\	-the-
2G/	-rea	2dd\	-rea	.	.	2g\	-rea	.	.	2b/	-rea
2r	.	8gg\	lie-	.	.	8c\	lie-	.	.	2r	.
.	.	8ff\	.	.	.	8d\	.	.	.	.	.
.	.	8ee\	.	.	.	8e\	.	.	.	.	.
.	.	8dd\	.	.	.	8fny\	.	.	.	.	.
8c/	lie-	4ee\	.	.	.	4g\	.	.	.	8gg\	lie-
8d\	.	.	.	.	.	.	.	.	.	8ffny\	.
8e\	.	4ccny\	-ta	.	.	4g\	-ta	.	.	8ee\	.
8f\	.	.	.	.	.	.	.	.	.	8dd\	.
=17-	=17-	=17-	=17-	=17-	=17-	=17-	=17-	=17-	=17-	=17-	=17-
!	!	!	!	!	!	!	!	!LO:SIC:v:t=custos c	!	!	!
4g\	.	8gg\	lie-	1r	.	8c/	lie-	1r	.	4ee\	.
.	.	8ff\	.	.	.	8d\	.	.	.	.	.
!LO:SIC:v:t=custos c	!	!	!	!	!	!	!	!	!	!	!
4g\	-ta	8ee\	.	.	.	8e\	.	.	.	4cc\	-ta
.	.	8dd\	.	.	.	8f\	.	.	.	.	.
!LO:LB:g=original	!	!	!	!	!	!	!	!	!	!	!
*xywh-#19:1039,1783,3338,659	*	*	*	*	*	*	*	*	*	*	*
8c/	lie-	4ee\	.	.	.	4g\	.	.	.	8gg\	lie-
8d\	.	.	.	.	.	.	.	.	.	8ff\	.
8e\	.	4cc\	-ta	.	.	4g\	-ta	.	.	8ee\	.
8f\	.	.	.	.	.	.	.	.	.	8dd\	.
4g\	.	8gg\	lie-	2r	.	8c/	lie-	4r	.	4ee\	.
.	.	8ff\	.	.	.	8d\	.	.	.	.	.
!	!	!	!	!	!	!	!	!LO:LB:g=original	!	!	!
*	*	*	*	*	*	*	*	*xywh-#557:1269,2235,3310,791	*	*	*
4g\	-ta	8ee\	.	.	.	8e\	.	4.c/	lie-	4cc\	-ta
!	!	!LO:SIC:v:t=custos ee	!	!	!	!	!	!	!	!	!
.	.	8dd\	.	.	.	8f\	.	.	.	.	.
!	!	!LO:LB:g=original	!	!	!	!	!	!	!	!	!
*	*	*xywh-#101:1177,2862,3297,670	*	*	*	*	*	*	*	*	*
2r	.	4ee\	.	2.c\	[et]	4g\	.	.	.	2ee\	[et]
.	.	.	.	.	.	.	.	8d/	.	.	.
.	.	2cc\	-ta [et]	.	.	4g\	-ta	8e/	.	.	.
.	.	.	.	.	.	.	.	8f\	.	.	.
=18-	=18-	=18-	=18-	=18-	=18-	=18-	=18-	=18-	=18-	=18-	=18-
1r	.	.	.	.	.	0r	.	4gny\	-ta	4dd\	gio-
.	.	4a/	gio-	4d\	gio-	.	.	8f\	[et]	8cc#X\	-li-
.	.	.	.	.	.	.	.	8f\	gio-	8b\	.
.	.	2a/	-li-	8A\	-li-	.	.	2e/	-li-	2cc#X\	.
.	.	.	.	8G\	.	.	.	.	.	.	.
.	.	.	.	4A\	.	.	.	.	.	.	.
2r	.	1a	-ua	1D	-ua	.	.	1f#X	-ua	1.dd	-ua
2d\	Per	.	.	.	.	.	.	.	.	.	.
=19-	=19-	=19-	=19-	=19-	=19-	=19-	=19-	=19-	=19-	=19-	=19-
8d\	cin-	4r	.	2G\	Per-	1r	.	2r	.	.	.
8c/	.	.	.	.	.	.	.	.	.	.	.
8B/	.	4b/	Per	.	.	.	.	.	.	.	.
8c/	.	.	.	.	.	.	.	.	.	.	.
!	!	!	!	!	!	!	!	!	!	!LO:SIC:v:t=custos dd	!
4d\	.	8b/	cin-	8G\	-cin	.	.	2g\	Per	2r	.
.	.	8a/	.	8F\	.	.	.	.	.	.	.
4e\	-ger-	8g/	.	8E/	.	.	.	.	.	.	.
.	.	8a/	.	8F/	.	.	.	.	.	.	.
!	!	!	!	!	!	!	!	!	!	!LO:LB:g=original	!
*	*	*	*	*	*	*	*	*	*	*xywh-#709:1299,2864,3346,661	*
4d\	-li il	4b/	.	4G\	.	2r	.	8g\	cin-	1r	.
.	.	.	.	.	.	.	.	8fny\	.	.	.
4c/	bel	4cc\	-ger-	4A\	ger-	.	.	8e\	.	.	.
.	.	.	.	.	.	.	.	8f\	.	.	.
2d\	crin	4b/	-li il	4G\	-li il	4r	.	4g\	.	.	.
!	!	!	!	!	!	!LO:SIC:v:t=custos d	!	!	!	!	!
.	.	4a/	bel	4F/	bel	4d\	Per	4a\	-ger-	.	.
=20-	=20-	=20-	=20-	=20-	=20-	=20-	=20-	=20-	=20-	=20-	=20-
!	!	!	!	!	!	!LO:LB:g=original	!	!	!	!	!
*	*	*	*	*	*	*xywh-#405:1370,2805,3379,660	*	*	*	*	*
2B/	d'o-	4b/	crin	2G\	crin	8d\	cin-	4g\	-li	4r	.
.	.	.	.	.	.	8c/	.	.	.	.	.
.	.	2g/	d'o-	.	.	8B/	.	4b\	Per-	4dd\	Per
.	.	.	.	.	.	8c/	.	.	.	.	.
4G/	-ro	.	.	4r	.	4.d\	.	8b\	-cin-	8dd\	cin-
.	.	.	.	.	.	.	.	8a\	.	8ccny\	.
!LO:SIC:v:t=custos B	!	!	!	!	!	!	!	!	!	!	!
4B/	Per	4g/	-ro	4G\	Per-	.	.	8g\	.	8b\	.
!	!	!	!	!	!	!	!	!LO:SIC:v:t=custos b	!	!	!
.	.	.	.	.	.	8e\	-ger-	8a\	.	8cc\	.
!LO:LB:g=original	!	!	!	!	!	!	!	!	!	!	!
!	!	!	!	!	!	!	!	!LO:LB:g=original	!	!	!
*xywh-#19:1039,2352,3352,617	*	*	*	*	*	*	*	*xywh-#557:1200,2842,3417,683	*	*	*
8B/	cin-	4r	.	8G\	-cin	4d\	-li il	4b\	.	4dd\	.
8A/	.	.	.	8F\	.	.	.	.	.	.	.
8G/	.	4gg\	Per	8E/	.	4c/	bel	4cc\	-ger-	4ee\	-ger-
!	!	!	!	!LO:SIC:v:t=custos G	!	!	!	!	!	!	!
8A/	.	.	.	8F/	.	.	.	.	.	.	.
!	!	!	!	!LO:LB:g=original	!	!	!	!	!	!	!
*	*	*	*	*xywh-#253:1370,2387,3328,651	*	*	*	*	*	*	*
4B/	.	8gg\	cin-	4G\	.	4B/	crin	4g\	-li il	4dd\	-li il
.	.	8ff\	.	.	.	.	.	.	.	.	.
4c/	-ger-	8ee\	.	4A\	ger-	2e\	d'o-	4c/	bel	4cc\	bel
!	!	!LO:SIC:v:t=custos gg	!	!	!	!	!	!	!	!	!
.	.	8ff\	.	.	.	.	.	.	.	.	.
=21-	=21-	=21-	=21-	=21-	=21-	=21-	=21-	=21-	=21-	=21-	=21-
!	!	!LO:LB:g=original	!	!	!	!	!	!	!	!	!
*	*	*xywh-#101:1170,3401,3345,732	*	*	*	*	*	*	*	*	*
4B/	-li il	4gg\	.	4G\	-li il	.	.	4g\	crin-	2dd\	crin
4A/	bel	4aa\	-ger-	4F/	bel	8d\	.	4.dd\	-d'o-	.	.
.	.	.	.	.	.	8c\	.	.	.	.	.
2d\	crin-	4gg\	-li il	2G\	crin	4.B/	.	.	.	4r	.
.	.	.	.	.	.	.	.	8cc\	.	.	.
.	.	2dd\	bel	.	.	.	.	8b\	.	4g/	il
.	.	.	.	.	.	8c/	.	8a\	.	.	.
4r	.	.	.	1G	d'o-	4d\	.	1g	.	4b/	bel
4.g\	-d'o-	2cc\	crin	.	.	4e\	.	.	.	4cc\	crin
.	.	.	.	.	.	2d\	.	.	.	2dd\	d'o-
16f\	.	.	.	.	.	.	.	.	.	.	.
16e\	.	.	.	.	.	.	.	.	.	.	.
4d\	.	4b/	d'o-	.	.	.	.	.	.	.	.
=22-	=22-	=22-	=22-	=22-	=22-	=22-	=22-	=22-	=22-	=22-	=22-
1g	-ro	2cc\	-ro	4C/	-ro	1c	-ro	2e/	-ro	2ee\	-ro
.	.	.	.	4c\	ſpo-	.	.	.	.	.	.
.	.	4r	.	1c	-gla-	.	.	4r	.	4r	.
.	.	4ee\	ſpo-	.	.	.	.	4g\	ſpo-	4cc\	ſpo-
1r	.	2ee\	-glia-	.	.	1r	.	2g\	-glia-	2cc\	-glia-
.	.	4ff\	-to	4F/	-to	.	.	4a\	-to	4cc\	-to
.	.	4ff\	Di	4F/	Di	.	.	4a\	De	4cc\	Di
=23-	=23-	=23-	=23-	=23-	=23-	=23-	=23-	=23-	=23-	=23-	=23-
0r	.	4.ee\	ſuoi	4.c\	fuoi	00r	.	4.g\	fuoi	4.cc\	ſuoi
!	!	!	!	!	!	!	!	!	!	!LO:SIC:v:t=custos ee	!
.	.	8dd\	piu	8B\	piu	.	.	8g\	piu	8dd\	piu
!	!	!	!	!	!	!	!	!	!	!LO:LB:g=original	!
*	*	*	*	*	*	*	*	*	*	*xywh-#709:1329,3389,3323,676	*
.	.	4cc\	va-	4c\	va-	.	.	4g\	va-	4ee\	va-
!	!	!	!	!	!	!	!	!LO:SIC:v:t=custos e	!	!	!
.	.	4a/	-ghi ho-	4d\	-ghi	.	.	4f\	-ghi	4dd\	-ghi ho-
!	!	!	!	!	!	!	!	!LO:LB:g=original	!	!	!
*	*	*	*	*	*	*	*	*xywh-#557:1238,3371,3379,729	*	*	*
.	.	1a	-nor	2A\	ho-	.	.	4e/	ho-	2cc#X\	-nor
.	.	.	.	.	.	.	.	4a\	-nor	.	.
.	.	.	.	2d\	-nor	.	.	8f#X\	quel	1dd\	quel
.	.	.	.	.	.	.	.	8g\	ver-	.	.
.	.	.	.	.	.	.	.	8a\	.	.	.
.	.	.	.	.	.	.	.	8f#X\	.	.	.
=24-	=24-	=24-	=24-	=24-	=24-	=24-	=24-	=24-	=24-	=24-	=24-
4r	.	0r	.	8B\	quel	.	.	4g\	.	.	.
.	.	.	.	8c\	ver-	.	.	.	.	.	.
4G/	quel	.	.	8d\	.	.	.	4d/	-de	.	.
.	.	.	.	8B\	.	.	.	.	.	.	.
4c/	ver-	.	.	4c\	.	.	.	8e/	pra-	4g/	ver-
.	.	.	.	.	.	.	.	8fny\	.	.	.
!	!	!	!	!LO:SIC:v:t=custos A	!	!	!	!	!	!	!
4d\	-de	.	.	4B\	-de	.	.	2g\	.	4g/	-de
!	!	!	!	!LO:LB:g=original	!	!	!	!	!	!	!
*	*	*	*	*xywh-#253:1370,2938,3320,674	*	*	*	*	*	*	*
8e\	pra-	.	.	1A	pra-	.	.	.	.	1ccny	pra-
8d\	.	.	.	.	.	.	.	.	.	.	.
8c/	.	.	.	.	.	.	.	8f\	.	.	.
8B/	.	.	.	.	.	.	.	8e\	.	.	.
!LO:SIC:v:t=custos d	!	!	!	!	!	!	!	!	!	!	!
2c/	.	.	.	.	.	.	.	2f#X\	.	.	.
=25-	=25-	=25-	=25-	=25-	=25-	=25-	=25-	=25-	=25-	=25-	=25-
!LO:LB:g=original	!	!	!	!	!	!	!	!	!	!	!
*xywh-#19:1025,2873,3366,624	*	*	*	*	*	*	*	*	*	*	*
1d	-to	1r	.	1G	-to	1r	.	1g	-to	1b	-to
1r	.	2cc\	Nuo-	2C/	Nuo-	2g\	Nuo-	2e/	Nuo-	2ee\	Nuo-
.	.	4cc\	-ua	4C/	-ua	4g\	-ua	4e/	-ua	4ee\	-ua
!	!	!LO:SIC:v:t=custos ee	!	!	!	!LO:SIC:v:t=custos g	!	!	!	!	!
.	.	4dd\	ghir-	4BB/	ghir-	4d\	ghir-	4g\	ghir-	4dd\	ghir-
=26-	=26-	=26-	=26-	=26-	=26-	=26-	=26-	=26-	=26-	=26-	=26-
!	!	!	!	!	!	!LO:LB:g=original	!	!	!	!	!
!	!	!LO:LB:g=original	!	!	!	!	!	!	!	!	!
*	*	*xywh-#101:1156,3968,3366,649	*	*	*	*xywh-#405:1347,3319,3402,698	*	*	*	*	*
00r	.	8ee\	-lan-	2C/	-lan-	2g\	-lan-	2e/	-lan-	8cc\	-lan-
.	.	8dd\	.	.	.	.	.	.	.	8b\	.
.	.	8ee\	.	.	.	.	.	.	.	8cc\	.
.	.	8ff\	.	.	.	.	.	.	.	8dd\	.
!	!	!	!	!	!	!	!	!LO:SIC:v:t=custos g	!	!	!
.	.	4ee\	.	2C/	-da	2g\	-da	2e/	-da	4cc\	.
.	.	4dd\	-da	.	.	.	.	.	.	4dd\	-da
!	!	!	!	!	!	!	!	!LO:LB:g=original	!	!	!
*	*	*	*	*	*	*	*	*xywh-#557:1223,3901,3386,714	*	*	*
.	.	8cc\	di	2C/	di	2c/	di	2g\	di	8ee\	di
.	.	8b\	.	.	.	.	.	.	.	8dd\	.
.	.	8cc\	.	.	.	.	.	.	.	8ee\	.
!	!	!	!	!	!	!	!	!	!	!LO:SIC:v:t=custos ee	!
.	.	8dd\	.	.	.	.	.	.	.	8ff\	.
!	!	!	!	!	!	!	!	!	!	!LO:LB:g=original	!
*	*	*	*	*	*	*	*	*	*	*xywh-#709:1329,3944,3346,669	*
.	.	4cc\	.	2C/	fio-	2c/	fio-	2g\	fio-	4ee\	.
.	.	4dd\	fio-	.	.	.	.	.	.	4dd\	.
=27-	=27-	=27-	=27-	=27-	=27-	=27-	=27-	=27-	=27-	=27-	=27-
.	.	8ee\	-ret-	2C/	-ret-	2c/	-ret-	2g\	-ret-	8cc\	fio-
.	.	8dd\	.	.	.	.	.	.	.	8b\	-ret-
.	.	8ee\	.	.	.	.	.	.	.	8cc\	.
.	.	8ff\	.	.	.	.	.	.	.	8dd\	.
.	.	4ee\	.	2C/	-ti or-	2G/	-ti or-	2g\	-ti or-	4cc\	.
.	.	4dd\	-ti or-	.	.	.	.	.	.	4dd\	-ti
.	.	8cc\	-di-	1C	-di-	2c/	-di-	1g	-di-	8ee\	or-
.	.	8b\	.	.	.	.	.	.	.	8dd\	-di-
.	.	8cc\	.	.	.	.	.	.	.	8ee\	.
.	.	8dd\	.	.	.	.	.	.	.	8ff\	.
.	.	2cc\	.	.	.	2c/	-ua	.	.	2ee\	.
=28-	=28-	=28-	=28-	=28-	=28-	=28-	=28-	=28-	=28-	=28-	=28-
2d\	Nuo-	1b	-ua	00G	-ua	4r	.	0g	-ua	0.dd	-na
.	.	.	.	.	.	4G/	Nuo-	.	.	.	.
4d\	-ua	.	.	.	.	4B/	-ua	.	.	.	.
4c/	ghir-	.	.	.	.	4c/	ghir-	.	.	.	.
8B/	-lan-	1r	.	.	.	8d\	-lan-	.	.	.	.
8A/	.	.	.	.	.	8c\	.	.	.	.	.
8B/	.	.	.	.	.	8d\	.	.	.	.	.
8c/	.	.	.	.	.	8e\	.	.	.	.	.
4B/	.	.	.	.	.	4d\	.	.	.	.	.
4c/	-da	.	.	.	.	4c/	-da	.	.	.	.
=29-	=29-	=29-	=29-	=29-	=29-	=29-	=29-	=29-	=29-	=29-	=29-
8d\	di	0r	.	.	.	8B/	di	2g\	Nuo-	.	.
8c\	.	.	.	.	.	8A/	.	.	.	.	.
8d\	.	.	.	.	.	8B/	.	.	.	.	.
!	!	!	!	!	!	!LO:SIC:v:t=custos B	!	!	!	!	!
8e\	.	.	.	.	.	8c/	.	.	.	.	.
!	!	!	!	!	!	!LO:LB:g=original	!	!	!	!	!
*	*	*	*	*	*	*xywh-#405:1324,3887,3363,675	*	*	*	*	*
4d\	.	.	.	.	.	4B/	.	4g\	-ua	.	.
4c/	fio-	.	.	.	.	4c/	fio-	4d/	ghir-	.	.
8B/	-ret-	.	.	.	.	8d\	-ret-	2G/	-lan-	1r	.
8A/	.	.	.	.	.	8c\	.	.	.	.	.
8B/	.	.	.	.	.	8d\	.	.	.	.	.
8c/	.	.	.	.	.	8e\	.	.	.	.	.
4B/	.	.	.	.	.	4d\	.	2G/	-da	.	.
!LO:SIC:v:t=custos c	!	!	!	!	!	!	!	!	!	!	!
4B/	-ti or-	.	.	.	.	4d\	-ti or-	.	.	.	.
=30-	=30-	=30-	=30-	=30-	=30-	=30-	=30-	=30-	=30-	=30-	=30-
!	!	!LO:SIC:v:t=custos ee	!	!	!	!	!	!	!	!	!
!LO:LB:g=original	!	!	!	!	!	!	!	!	!	!	!
*xywh-#19:1011,3393,3372,666	*	*	*	*	*	*	*	*	*	*	*
2c/	-di-	2ee\	Nuo-	2C/	Nuo-	2e\	-di-	2c/	di	2cc\	Nuo-
!	!	!LO:LB:g=original	!	!	!	!	!	!	!	!	!
*	*	*xywh-#101:1142,4500,3345,691	*	*	*	*	*	*	*	*	*
2G/	-ua	4ee\	-ua	4C/	-ua	2g\	-ua	2c/	fio-	4cc\	-na
.	.	4dd\	ghir-	4BB/	ghir-	.	.	.	.	4dd\	ghir-
2g\	Nuo-	8cc\	-lan-	2C/	-lan-	2e\	Nuo-	2c/	-ret-	8ee\	-lan-
.	.	8b\	.	.	.	.	.	.	.	8dd\	.
.	.	8cc\	.	.	.	.	.	.	.	8ee\	.
!	!	!	!	!	!	!	!	!	!	!LO:SIC:v:t=custos ee	!
.	.	8dd\	.	.	.	.	.	.	.	8ff\	.
!	!	!	!	!	!	!	!	!	!	!LO:LB:g=original	!
*	*	*	*	*	*	*	*	*	*	*xywh-#709:1329,4477,3308,676	*
4g\	-ua	4cc\	.	2C/	-da	4e\	-ua	2c/	-ti or-	4ee\	.
4f\	ghir-	4dd\	-da	.	.	4f\	ghir-	.	.	4dd\	-da
=31-	=31-	=31-	=31-	=31-	=31-	=31-	=31-	=31-	=31-	=31-	=31-
8e\	-lan-	8ee\	di	2C/	di	8g\	-lan-	0g	-di-	8cc\	di
8f\	.	8dd\	.	.	.	8f\	.	.	.	8b\	.
8e\	.	8ee\	.	.	.	8g\	.	.	.	8cc\	.
8d\	.	8ff\	.	.	.	8a\	.	.	.	8dd\	.
!	!	!	!	!LO:SIC:v:t=custos C	!	!	!	!	!	!	!
4e\	.	4ee\	.	2C/	fio-	4g\	.	.	.	4cc\	.
4f\	-da	4dd\	fio-	.	.	4f\	-da	.	.	4dd\	fio-
!	!	!	!	!LO:LB:g=original	!	!	!	!	!	!	!
*	*	*	*	*xywh-#253:1347,3497,3390,620	*	*	*	*	*	*	*
8g\	di	8cc\	-ret-	2C/	-ret-	8e\	di	.	.	8ee\	-ret-
8f\	.	8b\	.	.	.	8f\	.	.	.	8dd\	.
8g\	.	8cc\	.	.	.	8e\	.	.	.	8ee\	.
8a\	.	8dd\	.	.	.	8d\	.	.	.	8ff\	.
4g\	.	4cc\	.	2C/	-ti or-	4e\	.	.	.	4ee\	-ti
!	!	!	!	!	!	!LO:SIC:v:t=custos c	!	!	!	!	!
4f\	fio-	4dd\	-ti or-	.	.	4d\	fio-	.	.	4ff\	or-
=32-	=32-	=32-	=32-	=32-	=32-	=32-	=32-	=32-	=32-	=32-	=32-
!	!	!	!	!	!	!LO:LB:g=original	!	!	!	!	!
*	*	*	*	*	*	*xywh-#405:1362,4371,3333,744	*	*	*	*	*
8e\	-ret-	4.ee\	-di-	0C	-di-	8c/	-ret-	00g	-ua.	4.gg\	-di-
8d\	.	.	.	.	.	8B/	.	.	.	.	.
8e\	.	.	.	.	.	8c/	.	.	.	.	.
8f\	.	8dd\	.	.	.	8d\	.	.	.	8ff\	.
4e\	.	8ee\	.	.	.	4c/	.	.	.	8gg\	.
.	.	8dd\	.	.	.	.	.	.	.	8ff\	.
4e\	-ti or-	8cc\	.	.	.	4G/	-ti or-	.	.	8ee\	.
.	.	8b\	.	.	.	.	.	.	.	8dd\	.
1c	-di-	1cc	.	.	.	1G	-di-	.	.	1ee	.
=33-	=33-	=33-	=33-	=33-	=33-	=33-	=33-	=33-	=33-	=33-	=33-
00d	-ua.	00b	-ua.	00G	-ua.	00G	-ua.	.	.	00dd	-ua.
=34-	=34-	=34-	=34-	=34-	=34-	=34-	=34-	=34-	=34-	=34-	=34-
.	.	.	.	.	.	.	.	0ryy	.	.	.
=-	=-	=-	=-	=-	=-	=-	=-	=-	=-	=-	=-
*-	*-	*-	*-	*-	*-	*-	*-	*-	*-	*-	*-
!!!system-decoration: s1,s2,s3,s4,s5,s6
!!!ENC: Andrzej Gręziak
!!!END: 2022-06-14
!!!ENC: Urszula Świątek
!!!END: 2022-07-24
!!!ENC-iiif: Jolanta Bujas-Poniatowska
!!!END-iiif: 2022-09-23
!!!YEC: Copyright 2022 Narodowy Instytut Fryderyka Chopina (https://polishscores.org)
!!!YEM: License CC-BY-4.0 (https://creativecommons.org/licenses/by/4.0)
